X:1
T:Etude op. 21 no 1
T:Joachim Andersen
L:1/8
Q:1/4=114
M:3/4
K:C
V:1 treble nm="Flûte" snm="Fl."
V:1
"^Moderato"!mf! C2- C/(D/E/F/ ^F/G/A/G/ | E/G/c/e/ g)z/.e/ .c'z/.e/ | b2- b/(g/e/c/ G/c/e/a/ | %3
 g)!f!(e'/!>(!d'/ c'/b/a/g/ f/e/d/c/!>)! |!p! B/d/f/a/ g/f/d/B/ G/)(d'/c'/b/ | %5
 a/g/)!<(!(E/G/ c/e/g/c'/ e'/d'/c'/!<)!b/ |"_cresc." a/g/^f/e/ d/^c/)(e/d/ =c/A/^F/D/ | %7
!f! G/)!>(!(A/B/c/ ^c/d/f/d/ B/G/F/D/)!>)! |!mf! C2- C/(D/E/F/ ^F/G/A/G/ | %9
 E/G/c/e/ g)z/.e/ .c'z/.e/ | b2- b/(g/e/c/ G/c/e/a/ | g)!f!(e'/!>(!d'/ c'/b/a/g/ f/e/d/c/!>)! | %12
!p! B/c/d/^f/ b/a/f/e/ d/)(c'/b/^a/ |"_cresc." b/c'/^c'/d'/ e'/d'/b/g/ d/)(^c/d/^d/ | %14
 e/)(^g/a/=g/ ^f/)(^c'/e'/d'/ =c'/a/f/d/ |!f! g/)!>(!(g'/^f'/e'/ d'/c'/b/a/ g/^f/g/b/)!>)! | %16
!p!"_dolce" (d'2- d'/^c'/=c'/b/ a/g/^f/g/ | a/g/f/d/!<(! B)z/.^c/ .d!<)!z/.^d/ | %18
!>(! (e2-!p! e/!>)!f/^f/g/ c'/b/a/g/ | ^f/g/a/g/ e/c/B/A/ G)z/.^G/ | (A2- A/B/^c/d/ e/^d/e/f/ | %21
 a/g/e/^c/!<(! _B)z/.A/ .^Gz/.=G/!<)! |!mf! (F2-!<(! F/A/d/c/ B/c/B/A/!<)! | %23
!>(! ^G/A/^A/B/ E/)!>)!(^D/E/G/"_dim." B/e/^g/b/ |!p! d'2- d'/)(^c'/=c'/b/ a/g/^f/g/ | %25
 a/g/f/d/!<(! B)z/.^c/ .dz/.^d/!<)! | (e2-!p! e/f/^f/g/ c'/b/a/g/ | ^f/g/a/g/ e/c/B/A/ G)z/.B/ | %28
 (c2-"_cresc." c/B/c/B/ c/a/)(c/^c/ | d2- d/^c/d/c/ d/b/)(d/^d/ | %30
 e/)!f!(^g/a/b/ d'/c'/b/a/ g/a/c'/a/ |!>(! ^g/)(a/^a/b/ =a/=g/f/d/ B/G/F/D/)!>)! | %32
 C2- C/(D/E/F/ ^F/G/A/G/ | E/G/c/e/ g)z/.e/ .c'z/.e/ | b2- b/(g/e/c/ G/c/e/a/ | %35
 g)!f!!>(!(e'/d'/ c'/b/a/g/ f/e/d/c/!>)! |!p! B/d/f/a/ g/f/d/B/ G/)(d'/c'/b/ | %37
 a/g/)!<(!(E/G/ c/e/g/c'/ e'/d'/c'/b/!<)! | a/g/^f/e/ d/^c/)"_cresc."(e/d/ =c/A/^F/D/ | %39
 G/)!f!(A/B/c/!>(! ^c/d/f/d/ B/G/F/D/)!>)! |!mf! C2- C/(D/E/F/ ^F/G/A/G/ | %41
 E/G/c/e/ g)z/.e/ .c'z/.e/ | b2- b/(g/e/c/ G/c/e/a/ | g)!f!(e'/d'/!>(! c'/b/a/g/ f/e/d/c/!>)! | %44
!mf! B/c/e/g/ a/f/c/A/ F/)(f/e/d/ | ^c/d/^f/a/"_cresc." b/g/d/B/ G/)(b/c'/d'/ | %46
 f'/e'/d'/c'/) (^g/a/b/a/ =g/f/e/^d/ | f/e/)!f!(d'/!>(!b/ d'/c'/b/a/ g/^f/^e/f/!>)! | %48
!mf! a/g/e/c/ G/c/e/g/ c')z/.e/ | (b/g/f/d/ G/d/"_poco"f/g/ a)z/"_a".g/ | %50
 (a/g/"_poco"e/c/ G/c/e/g/"_dim." c')z/.e/ | (b/g/f/d/ G/d/f/g/ a)z/.f/ | %52
 (a/g/e/c/ _B/c/e/g/ f)z/!>(!.A/ | (f/e/^c/A/ G/A/c/e/ d)!>)!z/.A/ | %54
!p! (c/A/^F/!<(!D/ F/A/c/d/ ^f/a/b/c'/!<)! |!mf! e'/d'/c'/b/ a/g/f/e/) (^c/d/b/a/ | %56
 ^f/g/!>(!a/g/) (c'/b/a/g/ =f/d/B/G/!>)! |!p! c2- c/)(d/e/f/ ^f/g/a/g/ | %58
!<(! f/d/B/G/ B/d/f/a/!<)! g)z/!p!.B/ | c2- c/!<(!(c'/b/a/ g/^f/g/^g/ | %60
 a/g/!<)!f/d/ B/)!>(!(G/^F/G/ ^G/A/^A/B/!>)! |!p! c/!<(!G/E/G/ c/e/g/c'/)!<)!!>(! (b/g/e/c/) | %62
 (a/g/e/c/) (g/e/!>)!c/"_dim."G/) (e/c/G/E/) | C6- | C2 z2 z2 |] %65

